!!!!SEGMENT: pl-kozmzk--mzk-m-346--033_walczynski-franciszek--cantantibus-organis-allegretto.krn
!!!cenid: 18xx:2828
!!!COM: Walczyński, Franciszek
!!!COM-rismID: pe30021989
!!!CDT: ~1852-1937
!!!CNT: Polish
!!!GTL: Cantantibus organis op. 10
!!!OTL: 33. Allegretto
!!!OMV: 033
!!!PDT: 1898
!!!AGN: Secular
!!!SMS-siglum: PL-KOZmzk
!!!SMS-shelfmark: mzk/m/346
!!!SMS-shelfwork: 001-033 G
!!!SMS-variant:
!!!SMS-altvar:
!!!NIFC-rismSourceID: 1001099615
!!!NIFC-rismChildID: 1001109426
!!!NIFC-islandoraID: pl-kozmzk:7453
!!!URL-pdf-islandora: https://repozytorium.nifc.pl/islandora/object/pl-kozmzk%3A7453/datastream/PDF/view
!!!URL-scan: https://polish.musicsources.pl/pl/lokalizacje/galeria/druki-muzyczne/7581 @EN{Scan on Polish Music Sources Website} @PL{Skany w portalu Dziedzictwo Muzyki Polskiej w otwartym dostępie}
!!!IIIF:
!!!ONB-nifc:
!!!AIN: 1 organ
!!!key:
**kern	**kern	**dynam
*part1	*part1	*part1
*staff2	*staff1	*
*Iorgan	*Iorgan	*
*I"Organo	*I"Organo	*
*clefF4	*clefG2	*
*k[b-]	*k[b-]	*
*F:	*F:	*
*M6/8	*M6/8	*
=1	=1	=1
*^	*^	*
!!LO:TX:a:B:t=Allegretto.
2.rF	2.rBB	8cc^/L	2.r	f
.	.	(16a/L	.	.
.	.	16g/J)	.	.
.	.	8f'/J	.	.
.	.	8g/	.	.
.	.	4c^/	.	.
=2	=2	=2	=2	=2
4A/	8F'\L	8f'/L	8c'\L	.
.	(8D\	(8f/	(8d\	.
[8c/	8C\J)	8g/J)	8e\J)	.
4c/]	4F^\	4a^/	4f\	.
8r	8ryy	8r	8ryy	.
=3	=3	=3	=3	=3
2.r	8c^>\L	2.rdd	2.rg	.
.	(>16A\L	.	.	.
.	16G\J)	.	.	.
.	8F'\J	.	.	.
.	8G\	.	.	.
.	4D-X^>\	.	.	.
=4	=4	=4	=4	=4
(4c/	(4.C	8g/L	8f\	.
.	.	(8g/	4e\	.
8B-/)	.	8a/J)	.	.
4.A/	4.FF)	4.f^/	4.c\	.
=5	=5	=5	=5	=5
2.rF	2.rBB	8a^/L	2.rA	p
.	.	(16f/L	.	.
.	.	16e/J)	.	.
.	.	8d'/J	.	.
.	.	8e/	.	.
.	.	4A^/	.	.
=6	=6	=6	=6	=6
4F/	8D'\L	8d'/L	8A\L	.
.	(8BB-\	(8d/	8B-\	.
[8A/	8AA\J)	8e/J)	8c#X\J	.
4A/]	4D\	4f^/	4d\	.
8r	8ryy	8r	8ryy	.
=7	=7	=7	=7	=7
2.r	8A^>\L	2.rdd	2.rg	.
.	(>16F\L	.	.	.
.	16E\J)	.	.	.
.	8D'>\J	.	.	.
.	8E'>\	.	.	.
.	4BBn/	.	.	.
=8	=8	=8	=8	=8
!!LO:LB:g=original
8c/L	8C\L	8a'/L	8f\L	.
8d/	8GG\	(8b-/	8g\	.
8c#X/J	8AA\J	[8a/J)	8e\J	.
4.d/	4.DD\	4.a^/]	4.f#X\	.
=9	=9	=9	=9	=9
(8qGG#X/	.	.	.	.
2.AA/)	2.DD\	8aa^/L	2.r	.
.	.	(16ff#X/L	.	.
.	.	16ee/J)	.	.
.	.	8dd'/J	.	.
.	.	8ee/	.	.
.	.	4a^/	.	.
*clefG2	*	*	*	*
=10	=10	=10	=10	=10
8f#X'/L	8d\L	8dd'/L	8a\L	.
(8f#/	(8Bn\	(8dd/	(8bn\	.
8a/J)	8A\J)	8ee/J)	8cc#X\J)	.
4a/	4d\	4ff#X/	4dd\	.
8r	8ryy	8r	8ryy	.
*	*	*v	*v	*
*clefF4	*	*	*
=11	=11	=11	=11
(8qGG#X/	.	.	.
2.AA/)	2.DD\	8a^>/L	pp
.	.	(16fn/L	.
.	.	16e/J)	.
.	.	8d'/J	.
.	.	8e/	.
.	.	4A^>/	.
=12	=12	=12	=12
*	*	*^	*
(4F/	8DD'\L	8d'/L	8A\L	.
.	(8BB-\	(8d/	8B-\	.
8B-/)	8C\J)	8g/J)	8e\J	.
4.A/	4.FF\	4.f^/	4.f\	.
*	*	*v	*v	*
=13	=13	=13	=13
[2.C/ [2.A	[2.FF\	8cc^/L	pp
.	.	(16a/L	.
.	.	16g/J)	.
.	.	8f/J	.
.	.	8g^/	.
.	.	4c^/	.
=14	=14	=14	=14
4.C/] 4.A]	2.FF\_	8f^/L	.
.	.	(16c/L	.
.	.	16B-/J)	.
.	.	8A<'/J	.
8D-X\L	.	8G</	<
8C\	.	4En<^/	[[
8BB-\J	.	.	.
=15	=15	=15	=15
4.AA\	2.FF\_	[4.F</	ppp >
!LO:TX:b:i:t=rit.	!	!	!
4.BB-\ 4.D-X	.	4F<^/]	.
.	.	8F</	.
=16	=16	=16	=16
2.ryy	2.FF;\]	2.C<;/ 2.F< 2.A<	]]
*v	*v	*	*
==	==	==
*-	*-	*-
!!!system-decoration: {(s1,s2)}
!!!RDF**kern: > = above
!!!RDF**kern: < = below
!!!ENC: Kamil Watkowski
!!!END: 2021-08-09
!!!YEC: Copyright 2022 Narodowy Instytut Fryderyka Chopina (https://polishscores.org)
!!!YEM: License CC-BY-4.0 (https://creativecommons.org/licenses/by/4.0)
